P3
# Replace this placeholder with your photo
72 72
255
245 243 255 245 243 255 245 243 255 245 243 255 245 243 255 245 243 255 245 243 255 245 243 255 245 243 255 245 243 255 245 243 255 245 243 255 245 243 255 245 243 255 245 243 255 245 243 255 245 243 255 245 243 255 245 243 255 245 243 255 245 243 255 245 243 255 245 243 255 245 243 255 245 243 255 245 243 255 245 243 255 245 243 255 245 243 255 245 243 255 245 243 255 245 243 255 245 243 255 245 243 255 245 243 255 245 243 255 245 243 255 245 243 255 245 243 255 245 243 255 245 243 255 245 243 255 245 243 255 245 243 255 245 243 255 245 243 255 245 243 255 245 243 255 245 243 255 245 243 255 245 243 255 245 243 255 245 243 255 245 243 255 245 243 255 245 243 255 245 243 255 245 243 255 245 243 255 245 243 255 245 243 255 245 243 255 245 243 255 245 243 255 245 243 255 245 243 255 245 243 255 245 243 255 245 243 255 245 243 255 245 243 255 245 243 255
245 243 255 245 243 255 245 243 255 245 243 255 245 243 255 245 243 255 245 243 255 245 243 255 245 243 255 245 243 255 245 243 255 245 243 255 245 243 255 245 243 255 245 243 255 245 243 255 245 243 255 245 243 255 245 243 255 245 243 255 245 243 255 245 243 255 245 243 255 245 243 255 245 243 255 245 243 255 245 243 255 245 243 255 245 243 255 245 243 255 245 243 255 245 243 255 245 243 255 245 243 255 245 243 255 245 243 255 245 243 255 245 243 255 245 243 255 245 243 255 245 243 255 245 243 255 245 243 255 245 243 255 245 243 255 245 243 255 245 243 255 245 243 255 245 243 255 245 243 255 245 243 255 245 243 255 245 243 255 245 243 255 245 243 255 245 243 255 245 243 255 245 243 255 245 243 255 245 243 255 245 243 255 245 243 255 245 243 255 245 243 255 245 243 255 245 243 255 245 243 255 245 243 255 245 243 255 245 243 255 245 243 255 245 243 255
245 243 255 245 243 255 245 243 255 245 243 255 245 243 255 245 243 255 245 243 255 245 243 255 245 243 255 245 243 255 245 243 255 245 243 255 245 243 255 245 243 255 245 243 255 245 243 255 245 243 255 245 243 255 245 243 255 245 243 255 245 243 255 245 243 255 245 243 255 245 243 255 245 243 255 245 243 255 245 243 255 245 243 255 245 243 255 245 243 255 245 243 255 245 243 255 245 243 255 245 243 255 245 243 255 245 243 255 245 243 255 245 243 255 245 243 255 245 243 255 245 243 255 245 243 255 245 243 255 245 243 255 245 243 255 245 243 255 245 243 255 245 243 255 245 243 255 245 243 255 245 243 255 245 243 255 245 243 255 245 243 255 245 243 255 245 243 255 245 243 255 245 243 255 245 243 255 245 243 255 245 243 255 245 243 255 245 243 255 245 243 255 245 243 255 245 243 255 245 243 255 245 243 255 245 243 255 245 243 255 245 243 255 245 243 255
245 243 255 245 243 255 245 243 255 245 243 255 245 243 255 245 243 255 245 243 255 245 243 255 245 243 255 245 243 255 245 243 255 245 243 255 245 243 255 245 243 255 245 243 255 245 243 255 245 243 255 245 243 255 245 243 255 245 243 255 245 243 255 245 243 255 245 243 255 245 243 255 245 243 255 245 243 255 245 243 255 245 243 255 245 243 255 245 243 255 245 243 255 245 243 255 245 243 255 245 243 255 245 243 255 245 243 255 245 243 255 245 243 255 245 243 255 245 243 255 245 243 255 245 243 255 245 243 255 245 243 255 245 243 255 245 243 255 245 243 255 245 243 255 245 243 255 245 243 255 245 243 255 245 243 255 245 243 255 245 243 255 245 243 255 245 243 255 245 243 255 245 243 255 245 243 255 245 243 255 245 243 255 245 243 255 245 243 255 245 243 255 245 243 255 245 243 255 245 243 255 245 243 255 245 243 255 245 243 255 245 243 255 245 243 255
245 243 255 245 243 255 245 243 255 245 243 255 245 243 255 245 243 255 245 243 255 245 243 255 245 243 255 245 243 255 245 243 255 245 243 255 245 243 255 245 243 255 245 243 255 245 243 255 245 243 255 245 243 255 245 243 255 245 243 255 245 243 255 245 243 255 245 243 255 245 243 255 245 243 255 245 243 255 245 243 255 245 243 255 245 243 255 245 243 255 245 243 255 245 243 255 245 243 255 245 243 255 245 243 255 245 243 255 245 243 255 245 243 255 245 243 255 245 243 255 245 243 255 245 243 255 245 243 255 245 243 255 245 243 255 245 243 255 245 243 255 245 243 255 245 243 255 245 243 255 245 243 255 245 243 255 245 243 255 245 243 255 245 243 255 245 243 255 245 243 255 245 243 255 245 243 255 245 243 255 245 243 255 245 243 255 245 243 255 245 243 255 245 243 255 245 243 255 245 243 255 245 243 255 245 243 255 245 243 255 245 243 255 245 243 255
245 243 255 245 243 255 245 243 255 245 243 255 245 243 255 245 243 255 245 243 255 245 243 255 245 243 255 245 243 255 245 243 255 245 243 255 245 243 255 245 243 255 245 243 255 245 243 255 245 243 255 245 243 255 245 243 255 245 243 255 245 243 255 245 243 255 245 243 255 245 243 255 245 243 255 245 243 255 245 243 255 245 243 255 245 243 255 245 243 255 245 243 255 245 243 255 245 243 255 245 243 255 245 243 255 245 243 255 245 243 255 245 243 255 245 243 255 245 243 255 245 243 255 245 243 255 245 243 255 245 243 255 245 243 255 245 243 255 245 243 255 245 243 255 245 243 255 245 243 255 245 243 255 245 243 255 245 243 255 245 243 255 245 243 255 245 243 255 245 243 255 245 243 255 245 243 255 245 243 255 245 243 255 245 243 255 245 243 255 245 243 255 245 243 255 245 243 255 245 243 255 245 243 255 245 243 255 245 243 255 245 243 255 245 243 255
245 243 255 245 243 255 245 243 255 245 243 255 245 243 255 245 243 255 245 243 255 245 243 255 245 243 255 245 243 255 245 243 255 245 243 255 245 243 255 245 243 255 245 243 255 245 243 255 245 243 255 245 243 255 245 243 255 245 243 255 245 243 255 245 243 255 245 243 255 245 243 255 245 243 255 245 243 255 245 243 255 245 243 255 245 243 255 245 243 255 245 243 255 245 243 255 245 243 255 245 243 255 245 243 255 245 243 255 245 243 255 245 243 255 245 243 255 245 243 255 245 243 255 245 243 255 245 243 255 245 243 255 245 243 255 245 243 255 245 243 255 245 243 255 245 243 255 245 243 255 245 243 255 245 243 255 245 243 255 245 243 255 245 243 255 245 243 255 245 243 255 245 243 255 245 243 255 245 243 255 245 243 255 245 243 255 245 243 255 245 243 255 245 243 255 245 243 255 245 243 255 245 243 255 245 243 255 245 243 255 245 243 255 245 243 255
245 243 255 245 243 255 245 243 255 245 243 255 245 243 255 245 243 255 245 243 255 245 243 255 245 243 255 245 243 255 245 243 255 245 243 255 245 243 255 245 243 255 245 243 255 245 243 255 245 243 255 245 243 255 245 243 255 245 243 255 245 243 255 245 243 255 245 243 255 245 243 255 245 243 255 245 243 255 245 243 255 245 243 255 245 243 255 245 243 255 245 243 255 245 243 255 245 243 255 245 243 255 245 243 255 245 243 255 245 243 255 245 243 255 245 243 255 245 243 255 245 243 255 245 243 255 245 243 255 245 243 255 245 243 255 245 243 255 245 243 255 245 243 255 245 243 255 245 243 255 245 243 255 245 243 255 245 243 255 245 243 255 245 243 255 245 243 255 245 243 255 245 243 255 245 243 255 245 243 255 245 243 255 245 243 255 245 243 255 245 243 255 245 243 255 245 243 255 245 243 255 245 243 255 245 243 255 245 243 255 245 243 255 245 243 255
245 243 255 245 243 255 245 243 255 245 243 255 245 243 255 245 243 255 245 243 255 245 243 255 245 243 255 245 243 255 245 243 255 245 243 255 245 243 255 245 243 255 245 243 255 245 243 255 245 243 255 245 243 255 245 243 255 245 243 255 245 243 255 245 243 255 245 243 255 245 243 255 245 243 255 245 243 255 245 243 255 245 243 255 245 243 255 245 243 255 245 243 255 245 243 255 245 243 255 245 243 255 245 243 255 245 243 255 245 243 255 245 243 255 245 243 255 245 243 255 245 243 255 245 243 255 245 243 255 245 243 255 245 243 255 245 243 255 245 243 255 245 243 255 245 243 255 245 243 255 245 243 255 245 243 255 245 243 255 245 243 255 245 243 255 245 243 255 245 243 255 245 243 255 245 243 255 245 243 255 245 243 255 245 243 255 245 243 255 245 243 255 245 243 255 245 243 255 245 243 255 245 243 255 245 243 255 245 243 255 245 243 255 245 243 255
245 243 255 245 243 255 245 243 255 245 243 255 245 243 255 245 243 255 245 243 255 245 243 255 245 243 255 245 243 255 245 243 255 245 243 255 245 243 255 245 243 255 245 243 255 245 243 255 245 243 255 245 243 255 245 243 255 245 243 255 245 243 255 245 243 255 245 243 255 245 243 255 245 243 255 245 243 255 245 243 255 245 243 255 245 243 255 245 243 255 42 29 87 42 29 87 42 29 87 42 29 87 42 29 87 42 29 87 42 29 87 42 29 87 42 29 87 42 29 87 42 29 87 42 29 87 42 29 87 245 243 255 245 243 255 245 243 255 245 243 255 245 243 255 245 243 255 245 243 255 245 243 255 245 243 255 245 243 255 245 243 255 245 243 255 245 243 255 245 243 255 245 243 255 245 243 255 245 243 255 245 243 255 245 243 255 245 243 255 245 243 255 245 243 255 245 243 255 245 243 255 245 243 255 245 243 255 245 243 255 245 243 255 245 243 255
245 243 255 245 243 255 245 243 255 245 243 255 245 243 255 245 243 255 245 243 255 245 243 255 245 243 255 245 243 255 245 243 255 245 243 255 245 243 255 245 243 255 245 243 255 245 243 255 245 243 255 245 243 255 245 243 255 245 243 255 245 243 255 245 243 255 245 243 255 245 243 255 245 243 255 245 243 255 245 243 255 42 29 87 42 29 87 42 29 87 42 29 87 42 29 87 42 29 87 42 29 87 42 29 87 42 29 87 42 29 87 42 29 87 42 29 87 42 29 87 42 29 87 42 29 87 42 29 87 42 29 87 42 29 87 42 29 87 245 243 255 245 243 255 245 243 255 245 243 255 245 243 255 245 243 255 245 243 255 245 243 255 245 243 255 245 243 255 245 243 255 245 243 255 245 243 255 245 243 255 245 243 255 245 243 255 245 243 255 245 243 255 245 243 255 245 243 255 245 243 255 245 243 255 245 243 255 245 243 255 245 243 255 245 243 255
245 243 255 245 243 255 245 243 255 245 243 255 245 243 255 245 243 255 245 243 255 245 243 255 245 243 255 245 243 255 245 243 255 245 243 255 245 243 255 245 243 255 245 243 255 245 243 255 245 243 255 245 243 255 245 243 255 245 243 255 245 243 255 245 243 255 245 243 255 245 243 255 245 243 255 42 29 87 42 29 87 42 29 87 42 29 87 42 29 87 42 29 87 42 29 87 42 29 87 42 29 87 42 29 87 42 29 87 42 29 87 42 29 87 42 29 87 42 29 87 42 29 87 42 29 87 42 29 87 42 29 87 42 29 87 42 29 87 42 29 87 42 29 87 245 243 255 245 243 255 245 243 255 245 243 255 245 243 255 245 243 255 245 243 255 245 243 255 245 243 255 245 243 255 245 243 255 245 243 255 245 243 255 245 243 255 245 243 255 245 243 255 245 243 255 245 243 255 245 243 255 245 243 255 245 243 255 245 243 255 245 243 255 245 243 255
245 243 255 245 243 255 245 243 255 245 243 255 245 243 255 245 243 255 245 243 255 245 243 255 245 243 255 245 243 255 245 243 255 245 243 255 245 243 255 245 243 255 245 243 255 245 243 255 245 243 255 245 243 255 245 243 255 245 243 255 245 243 255 245 243 255 245 243 255 42 29 87 42 29 87 42 29 87 42 29 87 42 29 87 42 29 87 42 29 87 42 29 87 42 29 87 42 29 87 42 29 87 42 29 87 42 29 87 42 29 87 42 29 87 42 29 87 42 29 87 42 29 87 42 29 87 42 29 87 42 29 87 42 29 87 42 29 87 42 29 87 42 29 87 42 29 87 42 29 87 245 243 255 245 243 255 245 243 255 245 243 255 245 243 255 245 243 255 245 243 255 245 243 255 245 243 255 245 243 255 245 243 255 245 243 255 245 243 255 245 243 255 245 243 255 245 243 255 245 243 255 245 243 255 245 243 255 245 243 255 245 243 255 245 243 255
245 243 255 245 243 255 245 243 255 245 243 255 245 243 255 245 243 255 245 243 255 245 243 255 245 243 255 245 243 255 245 243 255 245 243 255 245 243 255 245 243 255 245 243 255 245 243 255 245 243 255 245 243 255 245 243 255 245 243 255 245 243 255 245 243 255 42 29 87 42 29 87 42 29 87 42 29 87 42 29 87 42 29 87 42 29 87 42 29 87 42 29 87 42 29 87 42 29 87 42 29 87 42 29 87 42 29 87 42 29 87 42 29 87 42 29 87 42 29 87 42 29 87 42 29 87 42 29 87 42 29 87 42 29 87 42 29 87 42 29 87 42 29 87 42 29 87 42 29 87 42 29 87 245 243 255 245 243 255 245 243 255 245 243 255 245 243 255 245 243 255 245 243 255 245 243 255 245 243 255 245 243 255 245 243 255 245 243 255 245 243 255 245 243 255 245 243 255 245 243 255 245 243 255 245 243 255 245 243 255 245 243 255 245 243 255
245 243 255 245 243 255 245 243 255 245 243 255 245 243 255 245 243 255 245 243 255 245 243 255 245 243 255 245 243 255 245 243 255 245 243 255 245 243 255 245 243 255 245 243 255 245 243 255 245 243 255 245 243 255 245 243 255 245 243 255 42 29 87 42 29 87 42 29 87 42 29 87 42 29 87 42 29 87 42 29 87 42 29 87 42 29 87 42 29 87 42 29 87 42 29 87 42 29 87 42 29 87 42 29 87 80 59 152 80 59 152 80 59 152 42 29 87 42 29 87 42 29 87 42 29 87 42 29 87 42 29 87 42 29 87 42 29 87 42 29 87 42 29 87 42 29 87 42 29 87 42 29 87 42 29 87 42 29 87 245 243 255 245 243 255 245 243 255 245 243 255 245 243 255 245 243 255 245 243 255 245 243 255 245 243 255 245 243 255 245 243 255 245 243 255 245 243 255 245 243 255 245 243 255 245 243 255 245 243 255 245 243 255 245 243 255
245 243 255 245 243 255 245 243 255 245 243 255 245 243 255 245 243 255 245 243 255 245 243 255 245 243 255 245 243 255 245 243 255 245 243 255 245 243 255 245 243 255 245 243 255 245 243 255 245 243 255 245 243 255 245 243 255 42 29 87 42 29 87 42 29 87 42 29 87 42 29 87 42 29 87 42 29 87 42 29 87 42 29 87 42 29 87 42 29 87 42 29 87 42 29 87 42 29 87 42 29 87 42 29 87 80 59 152 80 59 152 80 59 152 42 29 87 42 29 87 42 29 87 42 29 87 42 29 87 42 29 87 42 29 87 42 29 87 42 29 87 42 29 87 42 29 87 42 29 87 42 29 87 42 29 87 42 29 87 42 29 87 245 243 255 245 243 255 245 243 255 245 243 255 245 243 255 245 243 255 245 243 255 245 243 255 245 243 255 245 243 255 245 243 255 245 243 255 245 243 255 245 243 255 245 243 255 245 243 255 245 243 255 245 243 255
245 243 255 245 243 255 245 243 255 245 243 255 245 243 255 245 243 255 245 243 255 245 243 255 245 243 255 245 243 255 245 243 255 245 243 255 245 243 255 245 243 255 245 243 255 245 243 255 245 243 255 245 243 255 42 29 87 42 29 87 42 29 87 42 29 87 42 29 87 42 29 87 42 29 87 42 29 87 42 29 87 42 29 87 42 29 87 42 29 87 42 29 87 42 29 87 42 29 87 42 29 87 80 59 152 80 59 152 80 59 152 80 59 152 80 59 152 42 29 87 42 29 87 42 29 87 42 29 87 42 29 87 42 29 87 42 29 87 42 29 87 42 29 87 42 29 87 42 29 87 42 29 87 42 29 87 42 29 87 42 29 87 42 29 87 245 243 255 245 243 255 245 243 255 245 243 255 245 243 255 245 243 255 245 243 255 245 243 255 245 243 255 245 243 255 245 243 255 245 243 255 245 243 255 245 243 255 245 243 255 245 243 255 245 243 255
245 243 255 245 243 255 245 243 255 245 243 255 245 243 255 245 243 255 245 243 255 245 243 255 245 243 255 245 243 255 245 243 255 245 243 255 245 243 255 245 243 255 245 243 255 245 243 255 245 243 255 42 29 87 42 29 87 42 29 87 42 29 87 42 29 87 42 29 87 42 29 87 42 29 87 42 29 87 42 29 87 42 29 87 42 29 87 42 29 87 42 29 87 230 222 255 230 222 255 230 222 255 230 222 255 230 222 255 230 222 255 230 222 255 230 222 255 230 222 255 230 222 255 230 222 255 42 29 87 42 29 87 42 29 87 42 29 87 42 29 87 42 29 87 42 29 87 42 29 87 42 29 87 42 29 87 42 29 87 42 29 87 42 29 87 42 29 87 245 243 255 245 243 255 245 243 255 245 243 255 245 243 255 245 243 255 245 243 255 245 243 255 245 243 255 245 243 255 245 243 255 245 243 255 245 243 255 245 243 255 245 243 255 245 243 255
245 243 255 245 243 255 245 243 255 245 243 255 245 243 255 245 243 255 245 243 255 245 243 255 245 243 255 245 243 255 245 243 255 245 243 255 245 243 255 245 243 255 245 243 255 245 243 255 245 243 255 42 29 87 42 29 87 42 29 87 42 29 87 42 29 87 42 29 87 42 29 87 42 29 87 42 29 87 42 29 87 42 29 87 42 29 87 230 222 255 230 222 255 230 222 255 230 222 255 230 222 255 230 222 255 230 222 255 230 222 255 230 222 255 230 222 255 230 222 255 230 222 255 230 222 255 230 222 255 230 222 255 42 29 87 42 29 87 42 29 87 42 29 87 42 29 87 42 29 87 42 29 87 42 29 87 42 29 87 42 29 87 42 29 87 42 29 87 245 243 255 245 243 255 245 243 255 245 243 255 245 243 255 245 243 255 245 243 255 245 243 255 245 243 255 245 243 255 245 243 255 245 243 255 245 243 255 245 243 255 245 243 255 245 243 255
245 243 255 245 243 255 245 243 255 245 243 255 245 243 255 245 243 255 245 243 255 245 243 255 245 243 255 245 243 255 245 243 255 245 243 255 245 243 255 245 243 255 245 243 255 245 243 255 42 29 87 42 29 87 42 29 87 42 29 87 42 29 87 42 29 87 42 29 87 42 29 87 42 29 87 42 29 87 42 29 87 230 222 255 230 222 255 230 222 255 230 222 255 230 222 255 230 222 255 230 222 255 230 222 255 230 222 255 230 222 255 230 222 255 230 222 255 230 222 255 230 222 255 230 222 255 230 222 255 230 222 255 230 222 255 230 222 255 42 29 87 42 29 87 42 29 87 42 29 87 42 29 87 42 29 87 42 29 87 42 29 87 42 29 87 42 29 87 42 29 87 245 243 255 245 243 255 245 243 255 245 243 255 245 243 255 245 243 255 245 243 255 245 243 255 245 243 255 245 243 255 245 243 255 245 243 255 245 243 255 245 243 255 245 243 255
245 243 255 245 243 255 245 243 255 245 243 255 245 243 255 245 243 255 245 243 255 245 243 255 245 243 255 245 243 255 245 243 255 245 243 255 245 243 255 245 243 255 245 243 255 42 29 87 42 29 87 42 29 87 42 29 87 42 29 87 42 29 87 42 29 87 42 29 87 42 29 87 42 29 87 42 29 87 230 222 255 230 222 255 230 222 255 230 222 255 230 222 255 230 222 255 230 222 255 230 222 255 230 222 255 230 222 255 230 222 255 230 222 255 230 222 255 230 222 255 230 222 255 230 222 255 230 222 255 230 222 255 230 222 255 230 222 255 230 222 255 42 29 87 42 29 87 42 29 87 42 29 87 42 29 87 42 29 87 42 29 87 42 29 87 42 29 87 42 29 87 42 29 87 245 243 255 245 243 255 245 243 255 245 243 255 245 243 255 245 243 255 245 243 255 245 243 255 245 243 255 245 243 255 245 243 255 245 243 255 245 243 255 245 243 255
245 243 255 245 243 255 245 243 255 245 243 255 245 243 255 245 243 255 245 243 255 245 243 255 245 243 255 245 243 255 245 243 255 245 243 255 245 243 255 245 243 255 245 243 255 42 29 87 42 29 87 42 29 87 42 29 87 42 29 87 42 29 87 42 29 87 42 29 87 42 29 87 230 222 255 230 222 255 230 222 255 230 222 255 230 222 255 230 222 255 230 222 255 230 222 255 230 222 255 230 222 255 230 222 255 230 222 255 230 222 255 230 222 255 230 222 255 230 222 255 230 222 255 230 222 255 230 222 255 230 222 255 230 222 255 230 222 255 230 222 255 230 222 255 230 222 255 42 29 87 42 29 87 42 29 87 42 29 87 42 29 87 42 29 87 42 29 87 42 29 87 42 29 87 245 243 255 245 243 255 245 243 255 245 243 255 245 243 255 245 243 255 245 243 255 245 243 255 245 243 255 245 243 255 245 243 255 245 243 255 245 243 255 245 243 255
245 243 255 245 243 255 245 243 255 245 243 255 245 243 255 245 243 255 245 243 255 245 243 255 245 243 255 245 243 255 245 243 255 245 243 255 245 243 255 245 243 255 42 29 87 42 29 87 42 29 87 42 29 87 42 29 87 42 29 87 42 29 87 42 29 87 42 29 87 42 29 87 230 222 255 230 222 255 230 222 255 230 222 255 230 222 255 230 222 255 230 222 255 230 222 255 230 222 255 230 222 255 230 222 255 230 222 255 230 222 255 230 222 255 230 222 255 230 222 255 230 222 255 230 222 255 230 222 255 230 222 255 230 222 255 230 222 255 230 222 255 230 222 255 230 222 255 42 29 87 42 29 87 42 29 87 42 29 87 42 29 87 42 29 87 42 29 87 42 29 87 42 29 87 42 29 87 245 243 255 245 243 255 245 243 255 245 243 255 245 243 255 245 243 255 245 243 255 245 243 255 245 243 255 245 243 255 245 243 255 245 243 255 245 243 255
245 243 255 245 243 255 245 243 255 245 243 255 245 243 255 245 243 255 245 243 255 245 243 255 245 243 255 245 243 255 245 243 255 245 243 255 245 243 255 245 243 255 42 29 87 42 29 87 42 29 87 42 29 87 42 29 87 42 29 87 42 29 87 42 29 87 42 29 87 230 222 255 230 222 255 230 222 255 230 222 255 230 222 255 230 222 255 230 222 255 230 222 255 230 222 255 230 222 255 230 222 255 230 222 255 230 222 255 230 222 255 230 222 255 230 222 255 230 222 255 230 222 255 230 222 255 230 222 255 230 222 255 230 222 255 230 222 255 230 222 255 230 222 255 230 222 255 230 222 255 42 29 87 42 29 87 42 29 87 42 29 87 42 29 87 42 29 87 42 29 87 42 29 87 42 29 87 245 243 255 245 243 255 245 243 255 245 243 255 245 243 255 245 243 255 245 243 255 245 243 255 245 243 255 245 243 255 245 243 255 245 243 255 245 243 255
245 243 255 245 243 255 245 243 255 245 243 255 245 243 255 245 243 255 245 243 255 245 243 255 245 243 255 245 243 255 245 243 255 245 243 255 245 243 255 42 29 87 42 29 87 42 29 87 42 29 87 42 29 87 42 29 87 42 29 87 42 29 87 42 29 87 230 222 255 230 222 255 230 222 255 230 222 255 230 222 255 230 222 255 230 222 255 230 222 255 230 222 255 230 222 255 230 222 255 230 222 255 230 222 255 230 222 255 230 222 255 230 222 255 230 222 255 230 222 255 230 222 255 230 222 255 230 222 255 230 222 255 230 222 255 230 222 255 230 222 255 230 222 255 230 222 255 230 222 255 230 222 255 42 29 87 42 29 87 42 29 87 42 29 87 42 29 87 42 29 87 42 29 87 42 29 87 42 29 87 245 243 255 245 243 255 245 243 255 245 243 255 245 243 255 245 243 255 245 243 255 245 243 255 245 243 255 245 243 255 245 243 255 245 243 255
245 243 255 245 243 255 245 243 255 245 243 255 245 243 255 245 243 255 245 243 255 245 243 255 245 243 255 245 243 255 245 243 255 245 243 255 245 243 255 42 29 87 42 29 87 42 29 87 42 29 87 42 29 87 42 29 87 42 29 87 42 29 87 42 29 87 230 222 255 230 222 255 230 222 255 230 222 255 230 222 255 230 222 255 230 222 255 230 222 255 230 222 255 230 222 255 230 222 255 230 222 255 230 222 255 230 222 255 230 222 255 230 222 255 230 222 255 230 222 255 230 222 255 230 222 255 230 222 255 230 222 255 230 222 255 230 222 255 230 222 255 230 222 255 230 222 255 230 222 255 230 222 255 42 29 87 42 29 87 42 29 87 42 29 87 42 29 87 42 29 87 42 29 87 42 29 87 42 29 87 245 243 255 245 243 255 245 243 255 245 243 255 245 243 255 245 243 255 245 243 255 245 243 255 245 243 255 245 243 255 245 243 255 245 243 255
245 243 255 245 243 255 245 243 255 245 243 255 245 243 255 245 243 255 245 243 255 245 243 255 245 243 255 245 243 255 245 243 255 245 243 255 245 243 255 42 29 87 42 29 87 42 29 87 42 29 87 42 29 87 42 29 87 42 29 87 42 29 87 230 222 255 230 222 255 230 222 255 230 222 255 230 222 255 230 222 255 230 222 255 230 222 255 230 222 255 230 222 255 230 222 255 230 222 255 230 222 255 230 222 255 230 222 255 230 222 255 230 222 255 230 222 255 230 222 255 230 222 255 230 222 255 230 222 255 230 222 255 230 222 255 230 222 255 230 222 255 230 222 255 230 222 255 230 222 255 230 222 255 230 222 255 42 29 87 42 29 87 42 29 87 42 29 87 42 29 87 42 29 87 42 29 87 42 29 87 245 243 255 245 243 255 245 243 255 245 243 255 245 243 255 245 243 255 245 243 255 245 243 255 245 243 255 245 243 255 245 243 255 245 243 255
245 243 255 245 243 255 245 243 255 245 243 255 245 243 255 245 243 255 245 243 255 245 243 255 245 243 255 245 243 255 245 243 255 245 243 255 42 29 87 42 29 87 42 29 87 42 29 87 42 29 87 42 29 87 42 29 87 42 29 87 42 29 87 230 222 255 230 222 255 230 222 255 230 222 255 230 222 255 230 222 255 230 222 255 230 222 255 230 222 255 230 222 255 230 222 255 230 222 255 230 222 255 230 222 255 230 222 255 230 222 255 230 222 255 230 222 255 230 222 255 230 222 255 230 222 255 230 222 255 230 222 255 230 222 255 230 222 255 230 222 255 230 222 255 230 222 255 230 222 255 230 222 255 230 222 255 42 29 87 42 29 87 42 29 87 42 29 87 42 29 87 42 29 87 42 29 87 42 29 87 42 29 87 245 243 255 245 243 255 245 243 255 245 243 255 245 243 255 245 243 255 245 243 255 245 243 255 245 243 255 245 243 255 245 243 255
245 243 255 245 243 255 245 243 255 245 243 255 245 243 255 245 243 255 245 243 255 245 243 255 245 243 255 245 243 255 245 243 255 245 243 255 42 29 87 42 29 87 42 29 87 42 29 87 42 29 87 42 29 87 42 29 87 42 29 87 230 222 255 230 222 255 230 222 255 230 222 255 230 222 255 230 222 255 230 222 255 230 222 255 230 222 255 230 222 255 230 222 255 230 222 255 230 222 255 230 222 255 230 222 255 230 222 255 230 222 255 230 222 255 230 222 255 230 222 255 230 222 255 230 222 255 230 222 255 230 222 255 230 222 255 230 222 255 230 222 255 230 222 255 230 222 255 230 222 255 230 222 255 230 222 255 230 222 255 42 29 87 42 29 87 42 29 87 42 29 87 42 29 87 42 29 87 42 29 87 42 29 87 245 243 255 245 243 255 245 243 255 245 243 255 245 243 255 245 243 255 245 243 255 245 243 255 245 243 255 245 243 255 245 243 255
245 243 255 245 243 255 245 243 255 245 243 255 245 243 255 245 243 255 245 243 255 245 243 255 245 243 255 245 243 255 245 243 255 245 243 255 42 29 87 42 29 87 42 29 87 42 29 87 42 29 87 42 29 87 42 29 87 42 29 87 230 222 255 230 222 255 230 222 255 230 222 255 230 222 255 230 222 255 230 222 255 230 222 255 230 222 255 230 222 255 230 222 255 230 222 255 230 222 255 230 222 255 230 222 255 230 222 255 230 222 255 230 222 255 230 222 255 230 222 255 230 222 255 230 222 255 230 222 255 230 222 255 230 222 255 230 222 255 230 222 255 230 222 255 230 222 255 230 222 255 230 222 255 230 222 255 230 222 255 42 29 87 42 29 87 42 29 87 42 29 87 42 29 87 42 29 87 42 29 87 42 29 87 245 243 255 245 243 255 245 243 255 245 243 255 245 243 255 245 243 255 245 243 255 245 243 255 245 243 255 245 243 255 245 243 255
245 243 255 245 243 255 245 243 255 245 243 255 245 243 255 245 243 255 245 243 255 245 243 255 245 243 255 245 243 255 245 243 255 245 243 255 42 29 87 42 29 87 42 29 87 42 29 87 42 29 87 42 29 87 42 29 87 42 29 87 230 222 255 230 222 255 230 222 255 230 222 255 230 222 255 230 222 255 230 222 255 230 222 255 230 222 255 230 222 255 230 222 255 230 222 255 230 222 255 230 222 255 230 222 255 230 222 255 230 222 255 230 222 255 230 222 255 230 222 255 230 222 255 230 222 255 230 222 255 230 222 255 230 222 255 230 222 255 230 222 255 230 222 255 230 222 255 230 222 255 230 222 255 230 222 255 230 222 255 42 29 87 42 29 87 42 29 87 42 29 87 42 29 87 42 29 87 42 29 87 42 29 87 245 243 255 245 243 255 245 243 255 245 243 255 245 243 255 245 243 255 245 243 255 245 243 255 245 243 255 245 243 255 245 243 255
245 243 255 245 243 255 245 243 255 245 243 255 245 243 255 245 243 255 245 243 255 245 243 255 245 243 255 245 243 255 245 243 255 245 243 255 42 29 87 42 29 87 42 29 87 42 29 87 42 29 87 42 29 87 42 29 87 42 29 87 230 222 255 230 222 255 230 222 255 230 222 255 230 222 255 230 222 255 230 222 255 230 222 255 230 222 255 230 222 255 230 222 255 230 222 255 230 222 255 230 222 255 230 222 255 230 222 255 230 222 255 230 222 255 230 222 255 230 222 255 230 222 255 230 222 255 230 222 255 230 222 255 230 222 255 230 222 255 230 222 255 230 222 255 230 222 255 230 222 255 230 222 255 230 222 255 230 222 255 42 29 87 42 29 87 42 29 87 42 29 87 42 29 87 42 29 87 42 29 87 42 29 87 245 243 255 245 243 255 245 243 255 245 243 255 245 243 255 245 243 255 245 243 255 245 243 255 245 243 255 245 243 255 245 243 255
245 243 255 245 243 255 245 243 255 245 243 255 245 243 255 245 243 255 245 243 255 245 243 255 245 243 255 245 243 255 245 243 255 245 243 255 42 29 87 42 29 87 42 29 87 42 29 87 42 29 87 42 29 87 42 29 87 42 29 87 230 222 255 230 222 255 230 222 255 230 222 255 230 222 255 230 222 255 230 222 255 230 222 255 230 222 255 230 222 255 230 222 255 230 222 255 230 222 255 230 222 255 230 222 255 230 222 255 230 222 255 230 222 255 230 222 255 230 222 255 230 222 255 230 222 255 230 222 255 230 222 255 230 222 255 230 222 255 230 222 255 230 222 255 230 222 255 230 222 255 230 222 255 230 222 255 230 222 255 42 29 87 42 29 87 42 29 87 42 29 87 42 29 87 42 29 87 42 29 87 42 29 87 245 243 255 245 243 255 245 243 255 245 243 255 245 243 255 245 243 255 245 243 255 245 243 255 245 243 255 245 243 255 245 243 255
245 243 255 245 243 255 245 243 255 245 243 255 245 243 255 245 243 255 245 243 255 245 243 255 245 243 255 245 243 255 245 243 255 245 243 255 42 29 87 42 29 87 42 29 87 42 29 87 42 29 87 42 29 87 42 29 87 42 29 87 230 222 255 230 222 255 230 222 255 230 222 255 230 222 255 230 222 255 230 222 255 230 222 255 230 222 255 230 222 255 230 222 255 230 222 255 230 222 255 230 222 255 230 222 255 230 222 255 230 222 255 230 222 255 230 222 255 230 222 255 230 222 255 230 222 255 230 222 255 230 222 255 230 222 255 230 222 255 230 222 255 230 222 255 230 222 255 230 222 255 230 222 255 230 222 255 230 222 255 42 29 87 42 29 87 42 29 87 42 29 87 42 29 87 42 29 87 42 29 87 42 29 87 245 243 255 245 243 255 245 243 255 245 243 255 245 243 255 245 243 255 245 243 255 245 243 255 245 243 255 245 243 255 245 243 255
245 243 255 245 243 255 245 243 255 245 243 255 245 243 255 245 243 255 245 243 255 245 243 255 245 243 255 245 243 255 245 243 255 245 243 255 42 29 87 42 29 87 42 29 87 42 29 87 42 29 87 42 29 87 42 29 87 42 29 87 230 222 255 230 222 255 230 222 255 230 222 255 230 222 255 230 222 255 230 222 255 230 222 255 230 222 255 230 222 255 230 222 255 230 222 255 230 222 255 230 222 255 230 222 255 230 222 255 230 222 255 230 222 255 230 222 255 230 222 255 230 222 255 230 222 255 230 222 255 230 222 255 230 222 255 230 222 255 230 222 255 230 222 255 230 222 255 230 222 255 230 222 255 230 222 255 230 222 255 42 29 87 42 29 87 42 29 87 42 29 87 42 29 87 42 29 87 42 29 87 42 29 87 245 243 255 245 243 255 245 243 255 245 243 255 245 243 255 245 243 255 245 243 255 245 243 255 245 243 255 245 243 255 245 243 255
245 243 255 245 243 255 245 243 255 245 243 255 245 243 255 245 243 255 245 243 255 245 243 255 245 243 255 245 243 255 245 243 255 245 243 255 42 29 87 42 29 87 42 29 87 42 29 87 42 29 87 42 29 87 42 29 87 42 29 87 230 222 255 230 222 255 230 222 255 230 222 255 230 222 255 230 222 255 230 222 255 230 222 255 230 222 255 230 222 255 230 222 255 230 222 255 230 222 255 230 222 255 230 222 255 230 222 255 230 222 255 230 222 255 230 222 255 230 222 255 230 222 255 230 222 255 230 222 255 230 222 255 230 222 255 230 222 255 230 222 255 230 222 255 230 222 255 230 222 255 230 222 255 230 222 255 230 222 255 42 29 87 42 29 87 42 29 87 42 29 87 42 29 87 42 29 87 42 29 87 42 29 87 245 243 255 245 243 255 245 243 255 245 243 255 245 243 255 245 243 255 245 243 255 245 243 255 245 243 255 245 243 255 245 243 255
245 243 255 245 243 255 245 243 255 245 243 255 245 243 255 245 243 255 245 243 255 245 243 255 245 243 255 245 243 255 245 243 255 245 243 255 42 29 87 42 29 87 42 29 87 42 29 87 42 29 87 42 29 87 42 29 87 42 29 87 230 222 255 230 222 255 230 222 255 230 222 255 230 222 255 230 222 255 230 222 255 230 222 255 230 222 255 230 222 255 230 222 255 230 222 255 230 222 255 230 222 255 230 222 255 230 222 255 230 222 255 230 222 255 230 222 255 230 222 255 230 222 255 230 222 255 230 222 255 230 222 255 230 222 255 230 222 255 230 222 255 230 222 255 230 222 255 230 222 255 230 222 255 230 222 255 230 222 255 42 29 87 42 29 87 42 29 87 42 29 87 42 29 87 42 29 87 42 29 87 42 29 87 245 243 255 245 243 255 245 243 255 245 243 255 245 243 255 245 243 255 245 243 255 245 243 255 245 243 255 245 243 255 245 243 255
245 243 255 245 243 255 245 243 255 245 243 255 245 243 255 245 243 255 245 243 255 245 243 255 245 243 255 245 243 255 245 243 255 245 243 255 42 29 87 42 29 87 42 29 87 42 29 87 42 29 87 42 29 87 42 29 87 42 29 87 230 222 255 230 222 255 230 222 255 230 222 255 230 222 255 230 222 255 230 222 255 230 222 255 230 222 255 230 222 255 230 222 255 230 222 255 230 222 255 230 222 255 230 222 255 230 222 255 230 222 255 230 222 255 230 222 255 230 222 255 230 222 255 230 222 255 230 222 255 230 222 255 230 222 255 230 222 255 230 222 255 230 222 255 230 222 255 230 222 255 230 222 255 230 222 255 230 222 255 42 29 87 42 29 87 42 29 87 42 29 87 42 29 87 42 29 87 42 29 87 42 29 87 245 243 255 245 243 255 245 243 255 245 243 255 245 243 255 245 243 255 245 243 255 245 243 255 245 243 255 245 243 255 245 243 255
245 243 255 245 243 255 245 243 255 245 243 255 245 243 255 245 243 255 245 243 255 245 243 255 245 243 255 245 243 255 245 243 255 245 243 255 42 29 87 42 29 87 42 29 87 42 29 87 42 29 87 42 29 87 42 29 87 42 29 87 230 222 255 230 222 255 230 222 255 230 222 255 230 222 255 230 222 255 230 222 255 230 222 255 230 222 255 230 222 255 230 222 255 230 222 255 230 222 255 230 222 255 230 222 255 230 222 255 230 222 255 230 222 255 230 222 255 230 222 255 230 222 255 230 222 255 230 222 255 230 222 255 230 222 255 230 222 255 230 222 255 230 222 255 230 222 255 230 222 255 230 222 255 230 222 255 230 222 255 42 29 87 42 29 87 42 29 87 42 29 87 42 29 87 42 29 87 42 29 87 42 29 87 245 243 255 245 243 255 245 243 255 245 243 255 245 243 255 245 243 255 245 243 255 245 243 255 245 243 255 245 243 255 245 243 255
245 243 255 245 243 255 245 243 255 245 243 255 245 243 255 245 243 255 245 243 255 245 243 255 245 243 255 245 243 255 245 243 255 245 243 255 42 29 87 42 29 87 42 29 87 42 29 87 42 29 87 42 29 87 42 29 87 42 29 87 42 29 87 230 222 255 230 222 255 230 222 255 230 222 255 230 222 255 230 222 255 230 222 255 230 222 255 230 222 255 230 222 255 230 222 255 230 222 255 230 222 255 230 222 255 230 222 255 230 222 255 230 222 255 230 222 255 230 222 255 230 222 255 230 222 255 230 222 255 230 222 255 230 222 255 230 222 255 230 222 255 230 222 255 230 222 255 230 222 255 230 222 255 230 222 255 42 29 87 42 29 87 42 29 87 42 29 87 42 29 87 42 29 87 42 29 87 42 29 87 42 29 87 245 243 255 245 243 255 245 243 255 245 243 255 245 243 255 245 243 255 245 243 255 245 243 255 245 243 255 245 243 255 245 243 255
245 243 255 245 243 255 245 243 255 245 243 255 245 243 255 245 243 255 245 243 255 245 243 255 245 243 255 245 243 255 245 243 255 245 243 255 245 243 255 42 29 87 42 29 87 42 29 87 42 29 87 42 29 87 42 29 87 42 29 87 42 29 87 230 222 255 230 222 255 230 222 255 230 222 255 230 222 255 230 222 255 230 222 255 230 222 255 230 222 255 230 222 255 230 222 255 230 222 255 230 222 255 230 222 255 230 222 255 230 222 255 230 222 255 230 222 255 230 222 255 230 222 255 230 222 255 230 222 255 230 222 255 230 222 255 230 222 255 230 222 255 230 222 255 230 222 255 230 222 255 230 222 255 230 222 255 42 29 87 42 29 87 42 29 87 42 29 87 42 29 87 42 29 87 42 29 87 42 29 87 245 243 255 245 243 255 245 243 255 245 243 255 245 243 255 245 243 255 245 243 255 245 243 255 245 243 255 245 243 255 245 243 255 245 243 255
245 243 255 245 243 255 245 243 255 245 243 255 245 243 255 245 243 255 245 243 255 245 243 255 245 243 255 245 243 255 245 243 255 245 243 255 245 243 255 42 29 87 42 29 87 42 29 87 42 29 87 42 29 87 42 29 87 42 29 87 42 29 87 80 59 152 230 222 255 230 222 255 230 222 255 230 222 255 230 222 255 230 222 255 230 222 255 230 222 255 230 222 255 230 222 255 230 222 255 230 222 255 230 222 255 230 222 255 230 222 255 230 222 255 230 222 255 230 222 255 230 222 255 230 222 255 230 222 255 230 222 255 230 222 255 230 222 255 230 222 255 230 222 255 230 222 255 230 222 255 230 222 255 80 59 152 42 29 87 42 29 87 42 29 87 42 29 87 42 29 87 42 29 87 42 29 87 42 29 87 245 243 255 245 243 255 245 243 255 245 243 255 245 243 255 245 243 255 245 243 255 245 243 255 245 243 255 245 243 255 245 243 255 245 243 255
245 243 255 245 243 255 245 243 255 245 243 255 245 243 255 245 243 255 245 243 255 245 243 255 245 243 255 245 243 255 245 243 255 245 243 255 245 243 255 42 29 87 42 29 87 42 29 87 42 29 87 42 29 87 42 29 87 42 29 87 42 29 87 80 59 152 230 222 255 230 222 255 230 222 255 230 222 255 230 222 255 230 222 255 230 222 255 230 222 255 230 222 255 230 222 255 230 222 255 230 222 255 230 222 255 230 222 255 230 222 255 230 222 255 230 222 255 230 222 255 230 222 255 230 222 255 230 222 255 230 222 255 230 222 255 230 222 255 230 222 255 230 222 255 230 222 255 230 222 255 230 222 255 80 59 152 42 29 87 42 29 87 42 29 87 42 29 87 42 29 87 42 29 87 42 29 87 42 29 87 245 243 255 245 243 255 245 243 255 245 243 255 245 243 255 245 243 255 245 243 255 245 243 255 245 243 255 245 243 255 245 243 255 245 243 255
245 243 255 245 243 255 245 243 255 245 243 255 245 243 255 245 243 255 245 243 255 245 243 255 245 243 255 245 243 255 245 243 255 245 243 255 245 243 255 245 243 255 42 29 87 42 29 87 42 29 87 42 29 87 42 29 87 42 29 87 80 59 152 80 59 152 80 59 152 230 222 255 230 222 255 230 222 255 230 222 255 230 222 255 230 222 255 230 222 255 230 222 255 230 222 255 230 222 255 230 222 255 230 222 255 230 222 255 230 222 255 230 222 255 230 222 255 230 222 255 230 222 255 230 222 255 230 222 255 230 222 255 230 222 255 230 222 255 230 222 255 230 222 255 230 222 255 230 222 255 80 59 152 80 59 152 80 59 152 42 29 87 42 29 87 42 29 87 42 29 87 42 29 87 42 29 87 245 243 255 245 243 255 245 243 255 245 243 255 245 243 255 245 243 255 245 243 255 245 243 255 245 243 255 245 243 255 245 243 255 245 243 255 245 243 255
245 243 255 245 243 255 245 243 255 245 243 255 245 243 255 245 243 255 245 243 255 245 243 255 245 243 255 245 243 255 245 243 255 245 243 255 245 243 255 245 243 255 42 29 87 42 29 87 42 29 87 42 29 87 42 29 87 42 29 87 80 59 152 80 59 152 80 59 152 80 59 152 230 222 255 230 222 255 230 222 255 230 222 255 230 222 255 230 222 255 230 222 255 230 222 255 230 222 255 230 222 255 230 222 255 230 222 255 230 222 255 230 222 255 230 222 255 230 222 255 230 222 255 230 222 255 230 222 255 230 222 255 230 222 255 230 222 255 230 222 255 230 222 255 230 222 255 80 59 152 80 59 152 80 59 152 80 59 152 42 29 87 42 29 87 42 29 87 42 29 87 42 29 87 42 29 87 245 243 255 245 243 255 245 243 255 245 243 255 245 243 255 245 243 255 245 243 255 245 243 255 245 243 255 245 243 255 245 243 255 245 243 255 245 243 255
245 243 255 245 243 255 245 243 255 245 243 255 245 243 255 245 243 255 245 243 255 245 243 255 245 243 255 245 243 255 245 243 255 245 243 255 245 243 255 245 243 255 245 243 255 42 29 87 42 29 87 42 29 87 42 29 87 80 59 152 80 59 152 80 59 152 80 59 152 80 59 152 124 92 252 124 92 252 124 92 252 124 92 252 124 92 252 124 92 252 124 92 252 124 92 252 124 92 252 124 92 252 124 92 252 124 92 252 124 92 252 124 92 252 124 92 252 124 92 252 124 92 252 124 92 252 124 92 252 124 92 252 124 92 252 124 92 252 124 92 252 124 92 252 124 92 252 80 59 152 80 59 152 80 59 152 80 59 152 80 59 152 42 29 87 42 29 87 42 29 87 42 29 87 245 243 255 245 243 255 245 243 255 245 243 255 245 243 255 245 243 255 245 243 255 245 243 255 245 243 255 245 243 255 245 243 255 245 243 255 245 243 255 245 243 255
245 243 255 245 243 255 245 243 255 245 243 255 245 243 255 245 243 255 245 243 255 245 243 255 245 243 255 245 243 255 245 243 255 245 243 255 245 243 255 245 243 255 245 243 255 42 29 87 42 29 87 42 29 87 42 29 87 80 59 152 80 59 152 80 59 152 80 59 152 80 59 152 80 59 152 80 59 152 124 92 252 124 92 252 124 92 252 124 92 252 124 92 252 124 92 252 124 92 252 124 92 252 124 92 252 124 92 252 124 92 252 124 92 252 124 92 252 124 92 252 124 92 252 124 92 252 124 92 252 124 92 252 124 92 252 124 92 252 124 92 252 80 59 152 80 59 152 80 59 152 80 59 152 80 59 152 80 59 152 80 59 152 42 29 87 42 29 87 42 29 87 42 29 87 245 243 255 245 243 255 245 243 255 245 243 255 245 243 255 245 243 255 245 243 255 245 243 255 245 243 255 245 243 255 245 243 255 245 243 255 245 243 255 245 243 255
245 243 255 245 243 255 245 243 255 245 243 255 245 243 255 245 243 255 245 243 255 245 243 255 245 243 255 245 243 255 245 243 255 245 243 255 245 243 255 245 243 255 245 243 255 245 243 255 42 29 87 42 29 87 80 59 152 80 59 152 80 59 152 80 59 152 80 59 152 80 59 152 80 59 152 80 59 152 80 59 152 124 92 252 124 92 252 124 92 252 124 92 252 124 92 252 124 92 252 124 92 252 124 92 252 124 92 252 124 92 252 124 92 252 124 92 252 124 92 252 124 92 252 124 92 252 124 92 252 124 92 252 124 92 252 124 92 252 80 59 152 80 59 152 80 59 152 80 59 152 80 59 152 80 59 152 80 59 152 80 59 152 80 59 152 42 29 87 42 29 87 245 243 255 245 243 255 245 243 255 245 243 255 245 243 255 245 243 255 245 243 255 245 243 255 245 243 255 245 243 255 245 243 255 245 243 255 245 243 255 245 243 255 245 243 255
245 243 255 245 243 255 245 243 255 245 243 255 245 243 255 245 243 255 245 243 255 245 243 255 245 243 255 245 243 255 245 243 255 245 243 255 245 243 255 245 243 255 245 243 255 245 243 255 245 243 255 42 29 87 80 59 152 80 59 152 80 59 152 80 59 152 80 59 152 80 59 152 80 59 152 80 59 152 80 59 152 80 59 152 80 59 152 124 92 252 124 92 252 124 92 252 124 92 252 124 92 252 124 92 252 124 92 252 124 92 252 124 92 252 124 92 252 124 92 252 124 92 252 124 92 252 124 92 252 124 92 252 80 59 152 80 59 152 80 59 152 80 59 152 80 59 152 80 59 152 80 59 152 80 59 152 80 59 152 80 59 152 80 59 152 42 29 87 245 243 255 245 243 255 245 243 255 245 243 255 245 243 255 245 243 255 245 243 255 245 243 255 245 243 255 245 243 255 245 243 255 245 243 255 245 243 255 245 243 255 245 243 255 245 243 255
245 243 255 245 243 255 245 243 255 245 243 255 245 243 255 245 243 255 245 243 255 245 243 255 245 243 255 245 243 255 245 243 255 245 243 255 245 243 255 245 243 255 245 243 255 245 243 255 245 243 255 80 59 152 80 59 152 80 59 152 80 59 152 80 59 152 80 59 152 80 59 152 80 59 152 80 59 152 80 59 152 80 59 152 80 59 152 80 59 152 80 59 152 124 92 252 124 92 252 124 92 252 124 92 252 124 92 252 124 92 252 124 92 252 124 92 252 124 92 252 124 92 252 124 92 252 80 59 152 80 59 152 80 59 152 80 59 152 80 59 152 80 59 152 80 59 152 80 59 152 80 59 152 80 59 152 80 59 152 80 59 152 80 59 152 80 59 152 245 243 255 245 243 255 245 243 255 245 243 255 245 243 255 245 243 255 245 243 255 245 243 255 245 243 255 245 243 255 245 243 255 245 243 255 245 243 255 245 243 255 245 243 255 245 243 255
245 243 255 245 243 255 245 243 255 245 243 255 245 243 255 245 243 255 245 243 255 245 243 255 245 243 255 245 243 255 245 243 255 245 243 255 245 243 255 245 243 255 245 243 255 245 243 255 245 243 255 80 59 152 80 59 152 80 59 152 80 59 152 80 59 152 80 59 152 80 59 152 80 59 152 80 59 152 80 59 152 80 59 152 80 59 152 80 59 152 80 59 152 80 59 152 80 59 152 80 59 152 80 59 152 80 59 152 80 59 152 80 59 152 80 59 152 80 59 152 80 59 152 80 59 152 80 59 152 80 59 152 80 59 152 80 59 152 80 59 152 80 59 152 80 59 152 80 59 152 80 59 152 80 59 152 80 59 152 80 59 152 80 59 152 80 59 152 245 243 255 245 243 255 245 243 255 245 243 255 245 243 255 245 243 255 245 243 255 245 243 255 245 243 255 245 243 255 245 243 255 245 243 255 245 243 255 245 243 255 245 243 255 245 243 255
245 243 255 245 243 255 245 243 255 245 243 255 245 243 255 245 243 255 245 243 255 245 243 255 245 243 255 245 243 255 245 243 255 245 243 255 245 243 255 245 243 255 245 243 255 245 243 255 245 243 255 80 59 152 80 59 152 80 59 152 80 59 152 80 59 152 80 59 152 80 59 152 80 59 152 80 59 152 80 59 152 80 59 152 80 59 152 80 59 152 80 59 152 80 59 152 80 59 152 80 59 152 80 59 152 80 59 152 80 59 152 80 59 152 80 59 152 80 59 152 80 59 152 80 59 152 80 59 152 80 59 152 80 59 152 80 59 152 80 59 152 80 59 152 80 59 152 80 59 152 80 59 152 80 59 152 80 59 152 80 59 152 80 59 152 80 59 152 245 243 255 245 243 255 245 243 255 245 243 255 245 243 255 245 243 255 245 243 255 245 243 255 245 243 255 245 243 255 245 243 255 245 243 255 245 243 255 245 243 255 245 243 255 245 243 255
245 243 255 245 243 255 245 243 255 245 243 255 245 243 255 245 243 255 245 243 255 245 243 255 245 243 255 245 243 255 245 243 255 245 243 255 245 243 255 245 243 255 245 243 255 245 243 255 245 243 255 80 59 152 80 59 152 80 59 152 80 59 152 80 59 152 80 59 152 80 59 152 80 59 152 80 59 152 80 59 152 80 59 152 80 59 152 80 59 152 80 59 152 80 59 152 80 59 152 80 59 152 80 59 152 80 59 152 80 59 152 80 59 152 80 59 152 80 59 152 80 59 152 80 59 152 80 59 152 80 59 152 80 59 152 80 59 152 80 59 152 80 59 152 80 59 152 80 59 152 80 59 152 80 59 152 80 59 152 80 59 152 80 59 152 80 59 152 245 243 255 245 243 255 245 243 255 245 243 255 245 243 255 245 243 255 245 243 255 245 243 255 245 243 255 245 243 255 245 243 255 245 243 255 245 243 255 245 243 255 245 243 255 245 243 255
245 243 255 245 243 255 245 243 255 245 243 255 245 243 255 245 243 255 245 243 255 245 243 255 245 243 255 245 243 255 245 243 255 245 243 255 245 243 255 245 243 255 245 243 255 245 243 255 245 243 255 80 59 152 80 59 152 80 59 152 80 59 152 80 59 152 80 59 152 80 59 152 80 59 152 80 59 152 80 59 152 80 59 152 80 59 152 80 59 152 80 59 152 80 59 152 80 59 152 80 59 152 80 59 152 80 59 152 80 59 152 80 59 152 80 59 152 80 59 152 80 59 152 80 59 152 80 59 152 80 59 152 80 59 152 80 59 152 80 59 152 80 59 152 80 59 152 80 59 152 80 59 152 80 59 152 80 59 152 80 59 152 80 59 152 80 59 152 245 243 255 245 243 255 245 243 255 245 243 255 245 243 255 245 243 255 245 243 255 245 243 255 245 243 255 245 243 255 245 243 255 245 243 255 245 243 255 245 243 255 245 243 255 245 243 255
245 243 255 245 243 255 245 243 255 245 243 255 245 243 255 245 243 255 245 243 255 245 243 255 245 243 255 245 243 255 245 243 255 245 243 255 245 243 255 245 243 255 245 243 255 245 243 255 245 243 255 80 59 152 80 59 152 80 59 152 80 59 152 80 59 152 80 59 152 80 59 152 80 59 152 80 59 152 80 59 152 80 59 152 80 59 152 80 59 152 80 59 152 80 59 152 80 59 152 80 59 152 80 59 152 80 59 152 80 59 152 80 59 152 80 59 152 80 59 152 80 59 152 80 59 152 80 59 152 80 59 152 80 59 152 80 59 152 80 59 152 80 59 152 80 59 152 80 59 152 80 59 152 80 59 152 80 59 152 80 59 152 80 59 152 80 59 152 245 243 255 245 243 255 245 243 255 245 243 255 245 243 255 245 243 255 245 243 255 245 243 255 245 243 255 245 243 255 245 243 255 245 243 255 245 243 255 245 243 255 245 243 255 245 243 255
245 243 255 245 243 255 245 243 255 245 243 255 245 243 255 245 243 255 245 243 255 245 243 255 245 243 255 245 243 255 245 243 255 245 243 255 245 243 255 245 243 255 245 243 255 245 243 255 245 243 255 80 59 152 80 59 152 80 59 152 80 59 152 80 59 152 80 59 152 80 59 152 80 59 152 80 59 152 80 59 152 80 59 152 80 59 152 80 59 152 80 59 152 80 59 152 80 59 152 80 59 152 80 59 152 80 59 152 80 59 152 80 59 152 80 59 152 80 59 152 80 59 152 80 59 152 80 59 152 80 59 152 80 59 152 80 59 152 80 59 152 80 59 152 80 59 152 80 59 152 80 59 152 80 59 152 80 59 152 80 59 152 80 59 152 80 59 152 245 243 255 245 243 255 245 243 255 245 243 255 245 243 255 245 243 255 245 243 255 245 243 255 245 243 255 245 243 255 245 243 255 245 243 255 245 243 255 245 243 255 245 243 255 245 243 255
245 243 255 245 243 255 245 243 255 245 243 255 245 243 255 245 243 255 245 243 255 245 243 255 245 243 255 245 243 255 245 243 255 245 243 255 245 243 255 245 243 255 245 243 255 245 243 255 245 243 255 80 59 152 80 59 152 80 59 152 80 59 152 80 59 152 80 59 152 80 59 152 80 59 152 80 59 152 80 59 152 80 59 152 80 59 152 80 59 152 80 59 152 80 59 152 80 59 152 80 59 152 80 59 152 80 59 152 80 59 152 80 59 152 80 59 152 80 59 152 80 59 152 80 59 152 80 59 152 80 59 152 80 59 152 80 59 152 80 59 152 80 59 152 80 59 152 80 59 152 80 59 152 80 59 152 80 59 152 80 59 152 80 59 152 80 59 152 245 243 255 245 243 255 245 243 255 245 243 255 245 243 255 245 243 255 245 243 255 245 243 255 245 243 255 245 243 255 245 243 255 245 243 255 245 243 255 245 243 255 245 243 255 245 243 255
245 243 255 245 243 255 245 243 255 245 243 255 245 243 255 245 243 255 245 243 255 245 243 255 245 243 255 245 243 255 245 243 255 245 243 255 245 243 255 245 243 255 245 243 255 245 243 255 245 243 255 80 59 152 80 59 152 80 59 152 80 59 152 80 59 152 80 59 152 80 59 152 80 59 152 80 59 152 80 59 152 80 59 152 80 59 152 80 59 152 80 59 152 80 59 152 80 59 152 80 59 152 80 59 152 80 59 152 80 59 152 80 59 152 80 59 152 80 59 152 80 59 152 80 59 152 80 59 152 80 59 152 80 59 152 80 59 152 80 59 152 80 59 152 80 59 152 80 59 152 80 59 152 80 59 152 80 59 152 80 59 152 80 59 152 80 59 152 245 243 255 245 243 255 245 243 255 245 243 255 245 243 255 245 243 255 245 243 255 245 243 255 245 243 255 245 243 255 245 243 255 245 243 255 245 243 255 245 243 255 245 243 255 245 243 255
245 243 255 245 243 255 245 243 255 245 243 255 245 243 255 245 243 255 245 243 255 245 243 255 245 243 255 245 243 255 245 243 255 245 243 255 245 243 255 245 243 255 245 243 255 245 243 255 245 243 255 80 59 152 80 59 152 80 59 152 80 59 152 80 59 152 80 59 152 80 59 152 80 59 152 80 59 152 80 59 152 80 59 152 80 59 152 80 59 152 80 59 152 80 59 152 80 59 152 80 59 152 80 59 152 80 59 152 80 59 152 80 59 152 80 59 152 80 59 152 80 59 152 80 59 152 80 59 152 80 59 152 80 59 152 80 59 152 80 59 152 80 59 152 80 59 152 80 59 152 80 59 152 80 59 152 80 59 152 80 59 152 80 59 152 80 59 152 245 243 255 245 243 255 245 243 255 245 243 255 245 243 255 245 243 255 245 243 255 245 243 255 245 243 255 245 243 255 245 243 255 245 243 255 245 243 255 245 243 255 245 243 255 245 243 255
245 243 255 245 243 255 245 243 255 245 243 255 245 243 255 245 243 255 245 243 255 245 243 255 245 243 255 245 243 255 245 243 255 245 243 255 245 243 255 245 243 255 245 243 255 245 243 255 245 243 255 80 59 152 80 59 152 80 59 152 80 59 152 80 59 152 80 59 152 80 59 152 80 59 152 80 59 152 80 59 152 80 59 152 80 59 152 80 59 152 80 59 152 80 59 152 80 59 152 80 59 152 80 59 152 80 59 152 80 59 152 80 59 152 80 59 152 80 59 152 80 59 152 80 59 152 80 59 152 80 59 152 80 59 152 80 59 152 80 59 152 80 59 152 80 59 152 80 59 152 80 59 152 80 59 152 80 59 152 80 59 152 80 59 152 80 59 152 245 243 255 245 243 255 245 243 255 245 243 255 245 243 255 245 243 255 245 243 255 245 243 255 245 243 255 245 243 255 245 243 255 245 243 255 245 243 255 245 243 255 245 243 255 245 243 255
245 243 255 245 243 255 245 243 255 245 243 255 245 243 255 245 243 255 245 243 255 245 243 255 245 243 255 245 243 255 245 243 255 245 243 255 245 243 255 245 243 255 245 243 255 245 243 255 245 243 255 80 59 152 80 59 152 80 59 152 80 59 152 80 59 152 80 59 152 80 59 152 80 59 152 80 59 152 80 59 152 80 59 152 80 59 152 80 59 152 80 59 152 80 59 152 80 59 152 80 59 152 80 59 152 80 59 152 80 59 152 80 59 152 80 59 152 80 59 152 80 59 152 80 59 152 80 59 152 80 59 152 80 59 152 80 59 152 80 59 152 80 59 152 80 59 152 80 59 152 80 59 152 80 59 152 80 59 152 80 59 152 80 59 152 80 59 152 245 243 255 245 243 255 245 243 255 245 243 255 245 243 255 245 243 255 245 243 255 245 243 255 245 243 255 245 243 255 245 243 255 245 243 255 245 243 255 245 243 255 245 243 255 245 243 255
245 243 255 245 243 255 245 243 255 245 243 255 245 243 255 245 243 255 245 243 255 245 243 255 245 243 255 245 243 255 245 243 255 245 243 255 245 243 255 245 243 255 245 243 255 245 243 255 245 243 255 80 59 152 80 59 152 80 59 152 80 59 152 80 59 152 80 59 152 80 59 152 80 59 152 80 59 152 80 59 152 80 59 152 80 59 152 80 59 152 80 59 152 80 59 152 80 59 152 80 59 152 80 59 152 80 59 152 80 59 152 80 59 152 80 59 152 80 59 152 80 59 152 80 59 152 80 59 152 80 59 152 80 59 152 80 59 152 80 59 152 80 59 152 80 59 152 80 59 152 80 59 152 80 59 152 80 59 152 80 59 152 80 59 152 80 59 152 245 243 255 245 243 255 245 243 255 245 243 255 245 243 255 245 243 255 245 243 255 245 243 255 245 243 255 245 243 255 245 243 255 245 243 255 245 243 255 245 243 255 245 243 255 245 243 255
245 243 255 245 243 255 245 243 255 245 243 255 245 243 255 245 243 255 245 243 255 245 243 255 245 243 255 245 243 255 245 243 255 245 243 255 245 243 255 245 243 255 245 243 255 245 243 255 245 243 255 80 59 152 80 59 152 80 59 152 80 59 152 80 59 152 80 59 152 80 59 152 80 59 152 80 59 152 80 59 152 80 59 152 80 59 152 80 59 152 80 59 152 80 59 152 80 59 152 80 59 152 80 59 152 80 59 152 80 59 152 80 59 152 80 59 152 80 59 152 80 59 152 80 59 152 80 59 152 80 59 152 80 59 152 80 59 152 80 59 152 80 59 152 80 59 152 80 59 152 80 59 152 80 59 152 80 59 152 80 59 152 80 59 152 80 59 152 245 243 255 245 243 255 245 243 255 245 243 255 245 243 255 245 243 255 245 243 255 245 243 255 245 243 255 245 243 255 245 243 255 245 243 255 245 243 255 245 243 255 245 243 255 245 243 255
245 243 255 245 243 255 245 243 255 245 243 255 245 243 255 245 243 255 245 243 255 245 243 255 245 243 255 245 243 255 245 243 255 245 243 255 245 243 255 245 243 255 245 243 255 245 243 255 245 243 255 80 59 152 80 59 152 80 59 152 80 59 152 80 59 152 80 59 152 80 59 152 80 59 152 80 59 152 80 59 152 80 59 152 80 59 152 80 59 152 80 59 152 80 59 152 80 59 152 80 59 152 80 59 152 80 59 152 80 59 152 80 59 152 80 59 152 80 59 152 80 59 152 80 59 152 80 59 152 80 59 152 80 59 152 80 59 152 80 59 152 80 59 152 80 59 152 80 59 152 80 59 152 80 59 152 80 59 152 80 59 152 80 59 152 80 59 152 245 243 255 245 243 255 245 243 255 245 243 255 245 243 255 245 243 255 245 243 255 245 243 255 245 243 255 245 243 255 245 243 255 245 243 255 245 243 255 245 243 255 245 243 255 245 243 255
245 243 255 245 243 255 245 243 255 245 243 255 245 243 255 245 243 255 245 243 255 245 243 255 245 243 255 245 243 255 245 243 255 245 243 255 245 243 255 245 243 255 245 243 255 245 243 255 245 243 255 80 59 152 80 59 152 80 59 152 80 59 152 80 59 152 80 59 152 80 59 152 80 59 152 80 59 152 80 59 152 80 59 152 80 59 152 80 59 152 80 59 152 80 59 152 80 59 152 80 59 152 80 59 152 80 59 152 80 59 152 80 59 152 80 59 152 80 59 152 80 59 152 80 59 152 80 59 152 80 59 152 80 59 152 80 59 152 80 59 152 80 59 152 80 59 152 80 59 152 80 59 152 80 59 152 80 59 152 80 59 152 80 59 152 80 59 152 245 243 255 245 243 255 245 243 255 245 243 255 245 243 255 245 243 255 245 243 255 245 243 255 245 243 255 245 243 255 245 243 255 245 243 255 245 243 255 245 243 255 245 243 255 245 243 255
245 243 255 245 243 255 245 243 255 245 243 255 245 243 255 245 243 255 245 243 255 245 243 255 245 243 255 245 243 255 245 243 255 245 243 255 245 243 255 245 243 255 245 243 255 245 243 255 245 243 255 80 59 152 80 59 152 80 59 152 80 59 152 80 59 152 80 59 152 80 59 152 80 59 152 80 59 152 80 59 152 80 59 152 80 59 152 80 59 152 80 59 152 80 59 152 80 59 152 80 59 152 80 59 152 80 59 152 80 59 152 80 59 152 80 59 152 80 59 152 80 59 152 80 59 152 80 59 152 80 59 152 80 59 152 80 59 152 80 59 152 80 59 152 80 59 152 80 59 152 80 59 152 80 59 152 80 59 152 80 59 152 80 59 152 80 59 152 245 243 255 245 243 255 245 243 255 245 243 255 245 243 255 245 243 255 245 243 255 245 243 255 245 243 255 245 243 255 245 243 255 245 243 255 245 243 255 245 243 255 245 243 255 245 243 255
245 243 255 245 243 255 245 243 255 245 243 255 245 243 255 245 243 255 245 243 255 245 243 255 245 243 255 245 243 255 245 243 255 245 243 255 245 243 255 245 243 255 245 243 255 245 243 255 245 243 255 80 59 152 80 59 152 80 59 152 80 59 152 80 59 152 80 59 152 80 59 152 80 59 152 80 59 152 80 59 152 80 59 152 80 59 152 80 59 152 80 59 152 80 59 152 80 59 152 80 59 152 80 59 152 80 59 152 80 59 152 80 59 152 80 59 152 80 59 152 80 59 152 80 59 152 80 59 152 80 59 152 80 59 152 80 59 152 80 59 152 80 59 152 80 59 152 80 59 152 80 59 152 80 59 152 80 59 152 80 59 152 80 59 152 80 59 152 245 243 255 245 243 255 245 243 255 245 243 255 245 243 255 245 243 255 245 243 255 245 243 255 245 243 255 245 243 255 245 243 255 245 243 255 245 243 255 245 243 255 245 243 255 245 243 255
245 243 255 245 243 255 245 243 255 245 243 255 245 243 255 245 243 255 245 243 255 245 243 255 245 243 255 245 243 255 245 243 255 245 243 255 245 243 255 245 243 255 245 243 255 245 243 255 245 243 255 80 59 152 80 59 152 80 59 152 80 59 152 80 59 152 80 59 152 80 59 152 80 59 152 80 59 152 80 59 152 80 59 152 80 59 152 80 59 152 80 59 152 80 59 152 80 59 152 80 59 152 80 59 152 80 59 152 80 59 152 80 59 152 80 59 152 80 59 152 80 59 152 80 59 152 80 59 152 80 59 152 80 59 152 80 59 152 80 59 152 80 59 152 80 59 152 80 59 152 80 59 152 80 59 152 80 59 152 80 59 152 80 59 152 80 59 152 245 243 255 245 243 255 245 243 255 245 243 255 245 243 255 245 243 255 245 243 255 245 243 255 245 243 255 245 243 255 245 243 255 245 243 255 245 243 255 245 243 255 245 243 255 245 243 255
245 243 255 245 243 255 245 243 255 245 243 255 245 243 255 245 243 255 245 243 255 245 243 255 245 243 255 245 243 255 245 243 255 245 243 255 245 243 255 245 243 255 245 243 255 245 243 255 245 243 255 80 59 152 80 59 152 80 59 152 80 59 152 80 59 152 80 59 152 80 59 152 80 59 152 80 59 152 80 59 152 80 59 152 80 59 152 80 59 152 80 59 152 80 59 152 80 59 152 80 59 152 80 59 152 80 59 152 80 59 152 80 59 152 80 59 152 80 59 152 80 59 152 80 59 152 80 59 152 80 59 152 80 59 152 80 59 152 80 59 152 80 59 152 80 59 152 80 59 152 80 59 152 80 59 152 80 59 152 80 59 152 80 59 152 80 59 152 245 243 255 245 243 255 245 243 255 245 243 255 245 243 255 245 243 255 245 243 255 245 243 255 245 243 255 245 243 255 245 243 255 245 243 255 245 243 255 245 243 255 245 243 255 245 243 255
245 243 255 245 243 255 245 243 255 245 243 255 245 243 255 245 243 255 245 243 255 245 243 255 245 243 255 245 243 255 245 243 255 245 243 255 245 243 255 245 243 255 245 243 255 245 243 255 245 243 255 80 59 152 80 59 152 80 59 152 80 59 152 80 59 152 80 59 152 80 59 152 80 59 152 80 59 152 80 59 152 80 59 152 80 59 152 80 59 152 80 59 152 80 59 152 80 59 152 80 59 152 80 59 152 80 59 152 80 59 152 80 59 152 80 59 152 80 59 152 80 59 152 80 59 152 80 59 152 80 59 152 80 59 152 80 59 152 80 59 152 80 59 152 80 59 152 80 59 152 80 59 152 80 59 152 80 59 152 80 59 152 80 59 152 80 59 152 245 243 255 245 243 255 245 243 255 245 243 255 245 243 255 245 243 255 245 243 255 245 243 255 245 243 255 245 243 255 245 243 255 245 243 255 245 243 255 245 243 255 245 243 255 245 243 255
245 243 255 245 243 255 245 243 255 245 243 255 245 243 255 245 243 255 245 243 255 245 243 255 245 243 255 245 243 255 245 243 255 245 243 255 245 243 255 245 243 255 245 243 255 245 243 255 245 243 255 245 243 255 245 243 255 245 243 255 245 243 255 245 243 255 245 243 255 245 243 255 245 243 255 245 243 255 245 243 255 245 243 255 245 243 255 245 243 255 245 243 255 245 243 255 245 243 255 245 243 255 245 243 255 245 243 255 245 243 255 245 243 255 245 243 255 245 243 255 245 243 255 245 243 255 245 243 255 245 243 255 245 243 255 245 243 255 245 243 255 245 243 255 245 243 255 245 243 255 245 243 255 245 243 255 245 243 255 245 243 255 245 243 255 245 243 255 245 243 255 245 243 255 245 243 255 245 243 255 245 243 255 245 243 255 245 243 255 245 243 255 245 243 255 245 243 255 245 243 255 245 243 255 245 243 255 245 243 255 245 243 255 245 243 255
245 243 255 245 243 255 245 243 255 245 243 255 245 243 255 245 243 255 245 243 255 245 243 255 245 243 255 245 243 255 245 243 255 245 243 255 245 243 255 245 243 255 245 243 255 245 243 255 245 243 255 245 243 255 245 243 255 245 243 255 245 243 255 245 243 255 245 243 255 245 243 255 245 243 255 245 243 255 245 243 255 245 243 255 245 243 255 245 243 255 245 243 255 245 243 255 245 243 255 245 243 255 245 243 255 245 243 255 245 243 255 245 243 255 245 243 255 245 243 255 245 243 255 245 243 255 245 243 255 245 243 255 245 243 255 245 243 255 245 243 255 245 243 255 245 243 255 245 243 255 245 243 255 245 243 255 245 243 255 245 243 255 245 243 255 245 243 255 245 243 255 245 243 255 245 243 255 245 243 255 245 243 255 245 243 255 245 243 255 245 243 255 245 243 255 245 243 255 245 243 255 245 243 255 245 243 255 245 243 255 245 243 255 245 243 255
